X:96
T:Untitled. HA.095
M:6/4
L:1/4
Q:3/4=100
C:in Hand C
S:Henry Atkinson’s original MS,Hartburn,N’umberland,1694.
O:England
A:Hartburn,Northumberland
H:1/4
Z:vmp.Chris Partington.Jan.2004
K:F
“_No Key Sig in MS”c|f>ge fc_e|d>cB ABc|G3 g2a|
b>c’a bgc’|a>gf gc>a|g3f2:|
|:c|c>AG B2c|(dG)d g>af|e3c2g|
c’>ba gab|af>e dc>g|g3f2:|

